X: 100242
M: 6/8
L: 1/8
K: G
uc |\
|: ud |\
gdg gbg | gbg afd | efg dBd | ecA (.A2.f) |\
gdg gbg | gbg afd | efg dBg | dBG (.G2.d) |
gdg gbg | gbg afd | efg dBd | ecA (.A2.f) |\
gdg bag | f>ed afd | efg dBg | dBG G2 :|


